X:1
T:James Gibb editions
T:Psalm 72 (Becker) - Schütz
%%score [ ( 1 2 ) ( 3 4 ) ]
L:1/8
Q:1/4=100
M:2/2
K:F
V:1 treble nm="Soprano Alto"
V:2 treble 
V:3 bass nm="Tenor Bass"
V:4 bass 
V:1
"^Cornelius Becker\n(1561-1604)""^Psalm 72, SWV 169""^Heinrich Schütz\n(1585-1672)" d4 B2 c2 | %1
w: ~Auf Hü- geln,|
w: daß dein Volk|
 B2 G2 B2 c2 | d4 B2 cd | _e2 d2 c4 | B4 :|[M:2/2] c2 Bc d2 c2 | (BA) G2 ^F4 | ^F2 GA B2 d2 | %8
w: Ber- ge weit und|breit laß, Gott, den|Frie- den wal-|ten,|daß sie vor dein'm Ge-|richt * be- stehn|und mög den Ar- men|
w: bei Ge- rech- tig-|keit und bei Recht|werd er- hal-|ten,||||
 d2 ^c2 d4 | B2 cd !courtesy!=c2 B2 | A4 G8 |] %11
w: Hülf ge- scheh'n|den Lä- ste- rer zer-|schmei- ße.|
w: |||
V:2
 G4 G2 G2 | G2 _E2 D2 G2 | ^F4 D2 =FF | G2 F2 F4 | F4 :|[M:2/2] F2 DF F2 F2 | (B, D2) C D4 | %7
 D2 D!courtesy!=F F2 G2 | F2 E2 ^F4 | D2 FF F2 D2 | D4 D8 |] %11
V:3
 B,4 D2 _E2 | D2 C2 B,2 G,2 | A,4 G,2 A,B, | B,2 B,4 A,2 | B,4 :| %5
w: |||||
[M:2/2]"^3. So lang der Mond scheint und die Sonn, werden sich Leute finden, \ndie in der Furcht des Herren stehn, von Kind zu Kindeskinden, \ndie Kraft seins Wortes sich erzeigt, \ngleichwie vom Tau das Land war feucht \nund Ged'ons Fell vom Regen.\n\n4. Das Recht wird stehn in voller Blüt in unsers Königs Reiche, \nunt'r ihm wird wachsen großer Fried, so lang der Mond wird leuchten, \nsein Herrschaft geht von einem Meer \nbis zu dem andern, streckt sich fern\nbis an aller Welt Ende.\n\n7. Er hilft dem Armen aus der Not, der zu ihm fleht und schreiet, \nder Elend, der kein Helfer hat ,wird durch sein Gnad erfreuet, \nsein Güte und Barmherzigkeit\nwaltet stets üb'r betrübte Leut, \ner hilft den armen Seelen.\n\n10. Im Land und auf der großen Höh, desgleichen in den Auen \nsteht das Getreide dick und schön, daß man sein Lust dran schauet , \nalso das lieb göttliche Wort\nbringt reiche Frucht an allem Ort, \nes ist sehr wohl geraten.\n\n12. Gelobt sei Gott und hochgepreist, der Herr der großen G'meine, \nder Israel mit Macht beweist und Wunder tut alleine, \nsein herrlich Namen lobet wohl , \nall Land sind seiner Ehren voll, \nsprecht fröhlich Amen, Amen." A,2 G,A, B,2 A,2 | %6
w: |
 D2 G,2 A,4 | A,2 B,C D2 B,2 | A,2 A,2 A,4 | G,2 A,B, A,2 G,2- | G,2 ^F,2 G,8 |] %11
w: |||* * * * zer\-|* schmei- ße.|
V:4
 G,4 G,2 C,2 | G,2 C,2 G,2 _E,2 | D,4 G,2 F,B,, | _E,2 B,,2 F,4 | B,,4 :|[M:2/2] F,2 G,F, B,2 F,2 | %6
 (G,F,) _E,2 D,4 | D,2 G,F, B,2 G,2 | D,2 A,2 D,4 | G,2 F,B,, F,2 G,2 | D,4 G,,8 |] %11

